tools/download-figma-icons/icons/solid/fax.svg

<svg width="24" height="24" viewBox="0 0 24 24" fill="none" xmlns="http://www.w3.org/2000/svg">
<path d="M21.75 6H21V2.25C21 2.05109 20.921 1.86032 20.7803 1.71967C20.6397 1.57902 20.4489 1.5 20.25 1.5H10.5C10.3011 1.5 10.1103 1.57902 9.96967 1.71967C9.82902 1.86032 9.75 2.05109 9.75 2.25V6H8.25C8.25 5.40326 8.01295 4.83097 7.59099 4.40901C7.16903 3.98705 6.59674 3.75 6 3.75H4.5C3.90326 3.75 3.33097 3.98705 2.90901 4.40901C2.48705 4.83097 2.25 5.40326 2.25 6C1.65326 6 1.08097 6.23705 0.659011 6.65901C0.237054 7.08097 0 7.65326 0 8.25V20.25C0 20.8467 0.237054 21.419 0.659011 21.841C1.08097 22.2629 1.65326 22.5 2.25 22.5H21.75C22.3467 22.5 22.919 22.2629 23.341 21.841C23.7629 21.419 24 20.8467 24 20.25V8.25C24 7.65326 23.7629 7.08097 23.341 6.65901C22.919 6.23705 22.3467 6 21.75 6ZM3.75 6C3.75 5.80109 3.82902 5.61032 3.96967 5.46967C4.11032 5.32902 4.30109 5.25 4.5 5.25H6C6.19891 5.25 6.38968 5.32902 6.53033 5.46967C6.67098 5.61032 6.75 5.80109 6.75 6V18C6.75 18.1989 6.67098 18.3897 6.53033 18.5303C6.38968 18.671 6.19891 18.75 6 18.75H4.5C4.30109 18.75 4.11032 18.671 3.96967 18.5303C3.82902 18.3897 3.75 18.1989 3.75 18V6ZM11.25 6V3H19.5V10.5H11.25V6ZM19.5 15.75H18.75C18.5511 15.75 18.3603 15.671 18.2197 15.5303C18.079 15.3897 18 15.1989 18 15C18 14.8011 18.079 14.6103 18.2197 14.4697C18.3603 14.329 18.5511 14.25 18.75 14.25H19.5C19.6989 14.25 19.8897 14.329 20.0303 14.4697C20.171 14.6103 20.25 14.8011 20.25 15C20.25 15.1989 20.171 15.3897 20.0303 15.5303C19.8897 15.671 19.6989 15.75 19.5 15.75ZM20.25 18C20.25 18.1989 20.171 18.3897 20.0303 18.5303C19.8897 18.671 19.6989 18.75 19.5 18.75H18.75C18.5511 18.75 18.3603 18.671 18.2197 18.5303C18.079 18.3897 18 18.1989 18 18C18 17.8011 18.079 17.6103 18.2197 17.4697C18.3603 17.329 18.5511 17.25 18.75 17.25H19.5C19.6989 17.25 19.8897 17.329 20.0303 17.4697C20.171 17.6103 20.25 17.8011 20.25 18ZM15.75 15.75H15C14.8011 15.75 14.6103 15.671 14.4697 15.5303C14.329 15.3897 14.25 15.1989 14.25 15C14.25 14.8011 14.329 14.6103 14.4697 14.4697C14.6103 14.329 14.8011 14.25 15 14.25H15.75C15.9489 14.25 16.1397 14.329 16.2803 14.4697C16.421 14.6103 16.5 14.8011 16.5 15C16.5 15.1989 16.421 15.3897 16.2803 15.5303C16.1397 15.671 15.9489 15.75 15.75 15.75ZM16.5 18C16.5 18.1989 16.421 18.3897 16.2803 18.5303C16.1397 18.671 15.9489 18.75 15.75 18.75H15C14.8011 18.75 14.6103 18.671 14.4697 18.5303C14.329 18.3897 14.25 18.1989 14.25 18C14.25 17.8011 14.329 17.6103 14.4697 17.4697C14.6103 17.329 14.8011 17.25 15 17.25H15.75C15.9489 17.25 16.1397 17.329 16.2803 17.4697C16.421 17.6103 16.5 17.8011 16.5 18ZM12 15.75H11.25C11.0511 15.75 10.8603 15.671 10.7197 15.5303C10.579 15.3897 10.5 15.1989 10.5 15C10.5 14.8011 10.579 14.6103 10.7197 14.4697C10.8603 14.329 11.0511 14.25 11.25 14.25H12C12.1989 14.25 12.3897 14.329 12.5303 14.4697C12.671 14.6103 12.75 14.8011 12.75 15C12.75 15.1989 12.671 15.3897 12.5303 15.5303C12.3897 15.671 12.1989 15.75 12 15.75ZM12.75 18C12.75 18.1989 12.671 18.3897 12.5303 18.5303C12.3897 18.671 12.1989 18.75 12 18.75H11.25C11.0511 18.75 10.8603 18.671 10.7197 18.5303C10.579 18.3897 10.5 18.1989 10.5 18C10.5 17.8011 10.579 17.6103 10.7197 17.4697C10.8603 17.329 11.0511 17.25 11.25 17.25H12C12.1989 17.25 12.3897 17.329 12.5303 17.4697C12.671 17.6103 12.75 17.8011 12.75 18Z" fill="black"/>
<path d="M13.5 6H17.25C17.4489 6 17.6397 5.92098 17.7803 5.78033C17.921 5.63968 18 5.44891 18 5.25C18 5.05109 17.921 4.86032 17.7803 4.71967C17.6397 4.57902 17.4489 4.5 17.25 4.5H13.5C13.3011 4.5 13.1103 4.57902 12.9697 4.71967C12.829 4.86032 12.75 5.05109 12.75 5.25C12.75 5.44891 12.829 5.63968 12.9697 5.78033C13.1103 5.92098 13.3011 6 13.5 6Z" fill="black"/>
<path d="M13.5 9H17.25C17.4489 9 17.6397 8.92098 17.7803 8.78033C17.921 8.63968 18 8.44891 18 8.25C18 8.05109 17.921 7.86032 17.7803 7.71967C17.6397 7.57902 17.4489 7.5 17.25 7.5H13.5C13.3011 7.5 13.1103 7.57902 12.9697 7.71967C12.829 7.86032 12.75 8.05109 12.75 8.25C12.75 8.44891 12.829 8.63968 12.9697 8.78033C13.1103 8.92098 13.3011 9 13.5 9Z" fill="black"/>
</svg>

<svg width="24" height="24" viewBox="0 0 24 24" fill="none" xmlns="http://www.w3.org/2000/svg"><path d="M21.75 6H21V2.25a.75.75 0 0 0-.75-.75H10.5a.75.75 0 0 0-.75.75V6h-1.5A2.25 2.25 0 0 0 6 3.75H4.5A2.25 2.25 0 0 0 2.25 6 2.25 2.25 0 0 0 0 8.25v12a2.25 2.25 0 0 0 2.25 2.25h19.5A2.25 2.25 0 0 0 24 20.25v-12A2.25 2.25 0 0 0 21.75 6Zm-18 0a.75.75 0 0 1 .75-.75H6a.75.75 0 0 1 .75.75v12a.75.75 0 0 1-.75.75H4.5a.75.75 0 0 1-.75-.75V6Zm7.5 0V3h8.25v7.5h-8.25V6Zm8.25 9.75h-.75a.75.75 0 1 1 0-1.5h.75a.75.75 0 1 1 0 1.5Zm.75 2.25a.75.75 0 0 1-.75.75h-.75a.75.75 0 1 1 0-1.5h.75a.75.75 0 0 1 .75.75Zm-4.5-2.25H15a.75.75 0 1 1 0-1.5h.75a.75.75 0 1 1 0 1.5ZM16.5 18a.75.75 0 0 1-.75.75H15a.75.75 0 1 1 0-1.5h.75a.75.75 0 0 1 .75.75ZM12 15.75h-.75a.75.75 0 1 1 0-1.5H12a.75.75 0 1 1 0 1.5Zm.75 2.25a.75.75 0 0 1-.75.75h-.75a.75.75 0 1 1 0-1.5H12a.75.75 0 0 1 .75.75Z" fill="currentColor"/><path d="M13.5 6h3.75a.75.75 0 1 0 0-1.5H13.5a.75.75 0 1 0 0 1.5Zm0 3h3.75a.75.75 0 1 0 0-1.5H13.5a.75.75 0 1 0 0 1.5Z" fill="currentColor"/></svg>
